SVG_Azure_All/Time Series Insights Event Source.svg

<?xml version="1.0" encoding="UTF-8" standalone="no"?>
<!-- Generated by Microsoft Visio, SVG Export Time Series Insights Event Source.svg Page-1 -->

<svg
   xmlns:dc="http://purl.org/dc/elements/1.1/"
   xmlns:cc="http://creativecommons.org/ns#"
   xmlns:rdf="http://www.w3.org/1999/02/22-rdf-syntax-ns#"
   xmlns:svg="http://www.w3.org/2000/svg"
   xmlns="http://www.w3.org/2000/svg"
   xmlns:sodipodi="http://sodipodi.sourceforge.net/DTD/sodipodi-0.dtd"
   xmlns:inkscape="http://www.inkscape.org/namespaces/inkscape"
   width="0.78736675in"
   height="0.78736132in"
   viewBox="0 0 56.690312 56.689998"
   xml:space="preserve"
   class="st5"
   version="1.1"
   id="svg49"
   sodipodi:docname="Time Series Insights Event Source.svg"
   style="font-size:12px;overflow:visible;color-interpolation-filters:sRGB;fill:none;fill-rule:evenodd;stroke-linecap:square;stroke-miterlimit:3"
   inkscape:version="0.92.5 (2060ec1f9f, 2020-04-08)"><metadata
   id="metadata53"><rdf:RDF><cc:Work
       rdf:about=""><dc:format>image/svg+xml</dc:format><dc:type
         rdf:resource="http://purl.org/dc/dcmitype/StillImage" /></cc:Work></rdf:RDF></metadata><sodipodi:namedview
   pagecolor="#ffffff"
   bordercolor="#666666"
   borderopacity="1"
   objecttolerance="10"
   gridtolerance="10"
   guidetolerance="10"
   inkscape:pageopacity="0"
   inkscape:pageshadow="2"
   inkscape:window-width="640"
   inkscape:window-height="480"
   id="namedview51"
   showgrid="false"
   inkscape:zoom="1.4302448"
   inkscape:cx="37.795223"
   inkscape:cy="37.142409"
   inkscape:window-x="0"
   inkscape:window-y="0"
   inkscape:window-maximized="0"
   inkscape:current-layer="svg49" />
	<style
   type="text/css"
   id="style2">
	<![CDATA[
		.st1 {fill:url(#grad0-5);stroke:none;stroke-linecap:butt;stroke-width:33.0461}
		.st2 {fill:#c3f1ff;stroke:none;stroke-linecap:butt;stroke-width:33.0461}
		.st3 {fill:#949494;stroke:none;stroke-linecap:butt;stroke-width:33.0461}
		.st4 {fill:#767676;stroke:none;stroke-linecap:butt;stroke-width:33.0461}
		.st5 {fill:none;fill-rule:evenodd;font-size:12px;overflow:visible;stroke-linecap:square;stroke-miterlimit:3}
	]]>
	</style>

	<defs
   id="Patterns_And_Gradients">
		<linearGradient
   id="grad0-5"
   x1="-2.7339704e-05"
   y1="95.353329"
   x2="28.974686"
   y2="95.353329"
   gradientTransform="scale(1.004671,0.99535068)"
   gradientUnits="userSpaceOnUse">
			<stop
   offset="0"
   stop-color="#198ab3"
   stop-opacity="1"
   id="stop4" />
			<stop
   offset="0.4"
   stop-color="#25aed3"
   stop-opacity="1"
   id="stop6" />
			<stop
   offset="0.78"
   stop-color="#2fcaec"
   stop-opacity="1"
   id="stop8" />
			<stop
   offset="1"
   stop-color="#32d4f5"
   stop-opacity="1"
   id="stop10" />
		</linearGradient>
	</defs>
	<g
   id="g47"
   transform="translate(-33.046175,-33.0443)">
		<title
   id="title14">Page-1</title>
		<g
   id="group728-1"
   transform="translate(33.0461,-34.0157)">
			<title
   id="title16">Time Series Insights Event Source</title>
			<g
   id="shape729-2"
   transform="translate(13.8738,-13.9095)">
				<title
   id="title18">rect15</title>
				<path
   d="m 0,122.4 a 1.36412,1.35143 -180 0 0 1.36,1.35 h 26.39 a 1.36412,1.35143 -180 0 0 1.36,-1.35 V 96.27 A 1.36412,1.35143 -180 0 0 27.75,94.91 H 1.36 A 1.36412,1.35143 -180 0 0 0,96.27 Z"
   class="st1"
   id="path20"
   inkscape:connector-curvature="0"
   style="fill:url(#grad0-5);stroke:none;stroke-width:33.04610062;stroke-linecap:butt" />
			</g>
			<g
   id="shape730-6"
   transform="translate(22.7237,-16.7112)">
				<title
   id="title23">path17</title>
			</g>
			<g
   id="shape731-7"
   transform="translate(13.8738,-17.8549)">
				<title
   id="title26">path19</title>
				<path
   d="m 23.72,123.74 14.57,-10.11 a 0.432516,0.428493 -180 0 0 0,-0.72514 L 23.72,102.81 a 0.432516,0.428493 -180 0 0 -0.69868,0.36257 L 23.02,108.98 H 0 v 8.57 h 23.02 v 5.83 a 0.465787,0.461454 -180 0 0 0.69868,0.36257 z"
   class="st2"
   id="path28"
   inkscape:connector-curvature="0"
   style="fill:#c3f1ff;stroke:none;stroke-width:33.04610062;stroke-linecap:butt" />
			</g>
			<g
   id="shape732-9">
				<title
   id="title31">path21</title>
				<path
   d="M 54.96,123.75 H 1.73 A 1.73007,1.71397 0 0 1 0,122.04 V 68.78 a 1.73007,1.71397 0 0 1 1.73,-1.72 h 53.23 a 1.73007,1.71397 0 0 1 1.73,1.72 v 16.74 a 0.865033,0.856986 0 0 1 -1.36409,0.725142 L 52,83.94 A 0.898303,0.889947 0 0 1 51.634024,83.214857 L 51.64,72.34 H 5.26 v 46.14 h 46.18 v -10.55 a 0.865033,0.856986 0 0 1 0.365976,-0.69218 L 55.13,104.84 a 0.865033,0.856986 0 0 1 1.36409,0.72514 L 56.49,122.04 a 1.73007,1.71397 0 0 1 -1.53,1.71 z"
   class="st3"
   id="path33"
   inkscape:connector-curvature="0"
   style="fill:#949494;stroke:none;stroke-width:33.04610062;stroke-linecap:butt" />
			</g>
			<g
   id="shape733-11"
   transform="translate(51.4362,-37.4574)">
				<title
   id="title36">path23</title>
				<path
   d="m 0,109.79 v 10.72 a 0.898303,0.889947 -180 0 0 0.365976,0.72514 L 3.69,123.54 a 0.865033,0.856986 -180 0 0 1.49717,-0.56034 L 5.19,109.79 Z"
   class="st4"
   id="path38"
   inkscape:connector-curvature="0"
   style="fill:#767676;stroke:none;stroke-width:33.04610062;stroke-linecap:butt" />
			</g>
			<g
   id="shape734-13"
   transform="translate(51.4362,-5.10895)">
				<title
   id="title41">path25</title>
				<path
   d="m 0,123.59 v -10.71 a 0.831762,0.824025 0 0 1 0.365976,-0.69218 L 3.69,109.85 a 0.898303,0.889947 0 0 1 1.36409,0.72514 L 5.06,123.75 Z"
   class="st4"
   id="path43"
   inkscape:connector-curvature="0"
   style="fill:#767676;stroke:none;stroke-width:33.04610062;stroke-linecap:butt" />
			</g>
		</g>
	</g>
</svg>

<?xml version="1.0" encoding="UTF-8" standalone="no"?>
<!DOCTYPE svg PUBLIC "-//W3C//DTD SVG 1.1//EN" "http://www.w3.org/Graphics/SVG/1.1/DTD/svg11.dtd">
<!-- Generated by Microsoft Visio, SVG Export Time Series Insights Event Source.svg Page-1 -->
<svg xmlns="http://www.w3.org/2000/svg" xmlns:xlink="http://www.w3.org/1999/xlink" xmlns:ev="http://www.w3.org/2001/xml-events"
		width="1.70535in" height="1.71882in" viewBox="0 0 122.785 123.755" xml:space="preserve" color-interpolation-filters="sRGB"
		class="st5">
	<style type="text/css">
	<![CDATA[
		.st1 {fill:url(#grad0-5);stroke:none;stroke-linecap:butt;stroke-width:33.0461}
		.st2 {fill:#c3f1ff;stroke:none;stroke-linecap:butt;stroke-width:33.0461}
		.st3 {fill:#949494;stroke:none;stroke-linecap:butt;stroke-width:33.0461}
		.st4 {fill:#767676;stroke:none;stroke-linecap:butt;stroke-width:33.0461}
		.st5 {fill:none;fill-rule:evenodd;font-size:12px;overflow:visible;stroke-linecap:square;stroke-miterlimit:3}
	]]>
	</style>

	<defs id="Patterns_And_Gradients">
		<linearGradient id="grad0-5" x1="0" y1="0" x2="1" y2="0" gradientTransform="rotate(-90 0.5 0.5)">
			<stop offset="0" stop-color="#198ab3" stop-opacity="1"/>
			<stop offset="0.4" stop-color="#25aed3" stop-opacity="1"/>
			<stop offset="0.78" stop-color="#2fcaec" stop-opacity="1"/>
			<stop offset="1" stop-color="#32d4f5" stop-opacity="1"/>
		</linearGradient>
	</defs>
	<g>
		<title>Page-1</title>
		<g id="group713-1" transform="translate(33.0461,-34.0157)">
			<title>Time Series Insights Event Source</title>
			<g id="shape714-2" transform="translate(13.8738,-13.9095)">
				<title>rect15</title>
				<path d="M0 122.4 A1.36412 1.35143 -180 0 0 1.36 123.75 L27.75 123.75 A1.36412 1.35143 -180 0 0 29.11 122.4 L29.11
							 96.27 A1.36412 1.35143 -180 0 0 27.75 94.91 L1.36 94.91 A1.36412 1.35143 -180 0 0 -0 96.27 L0 122.4
							 Z" class="st1"/>
			</g>
			<g id="shape715-6" transform="translate(22.7237,-16.7112)">
				<title>path17</title>
			</g>
			<g id="shape716-7" transform="translate(13.8738,-17.8549)">
				<title>path19</title>
				<path d="M23.72 123.74 L38.29 113.63 a0.432516 0.428493 -180 0 0 9.23706E-14 -0.725142 L23.72 102.81 a0.432516 0.428493
							 -180 0 0 -0.69868 0.36257 L23.02 108.98 L0 108.98 L0 117.55 L23.02 117.55 L23.02 123.38 a0.465787 0.461454
							 -180 0 0 0.69868 0.36257 Z" class="st2"/>
			</g>
			<g id="shape717-9">
				<title>path21</title>
				<path d="M54.96 123.75 L1.73 123.75 A1.73007 1.71397 0 0 1 0 122.04 L0 68.78 A1.73007 1.71397 0 0 1 1.73 67.06 L54.96
							 67.06 A1.73007 1.71397 0 0 1 56.69 68.78 L56.69 85.52 a0.865033 0.856986 0 0 1 -1.36409 0.725142 L52
							 83.94 a0.898303 0.889947 0 0 1 -0.365976 -0.725143 L51.64 72.34 L5.26 72.34 L5.26 118.48 L51.44 118.48
							 L51.44 107.93 a0.865033 0.856986 0 0 1 0.365976 -0.692181 L55.13 104.84 a0.865033 0.856986 0 0 1 1.36409
							 0.725142 L56.49 122.04 A1.73007 1.71397 0 0 1 54.96 123.75 Z" class="st3"/>
			</g>
			<g id="shape718-11" transform="translate(51.4362,-37.4574)">
				<title>path23</title>
				<path d="M0 109.79 L0 120.51 a0.898303 0.889947 -180 0 0 0.365976 0.725142 L3.69 123.54 a0.865033 0.856986 -180 0
							 0 1.49717 -0.560337 L5.19 109.79 L0 109.79 Z" class="st4"/>
			</g>
			<g id="shape719-13" transform="translate(51.4362,-5.10895)">
				<title>path25</title>
				<path d="M0 123.59 L0 112.88 a0.831762 0.824025 0 0 1 0.365976 -0.692181 L3.69 109.85 a0.898303 0.889947 0 0 1 1.36409
							 0.725142 L5.06 123.75 L0 123.59 Z" class="st4"/>
			</g>
		</g>
	</g>
</svg>
